X:10
T:Arebloon Hornpipe,The. JBs.010
T:Air Balloon Hornpipe,The,aka. JBs.010
S:Jas.Blackshaw MS, 1837, N.Shropshire
Z:T. Weatherall 2006
M:4/4
L:1/8
Q:1/2=90
A:North Shropshire
K:F
fc c2Acc2|dBAG FEDC|A,FCF B,FDF|BdBG FEDC|!
fcc2Acc2|dBAG FEDC|A,FB,F A,FG,B|AGFE F4:|!
|:Acc2fcc2|bgeg fedc|dbb2 aaa2|bgeg fedc|!
fcc2Acc2|dBAG FEDC|A,FCF B,FG,B|AGFEF4:|

